X: 10740
T: Dr. Gilbert's
R: reel
M: 4/4
K: Edorian
gf||eBBA ~B3c|dBAd BAGF|EDB,D G2FG|EDB,E DB,A,B,|
DEED EDB,D|FEED EFGA|(3Bcd ed Bdgb|1 afdf efgf:|2 afdf e^def||
eB~B2 gB~B2|defa afdf|g2bg fbaf|e^def edBa|
afdf edBc|(3dcB AF AFDF|(3EFG =cA Bdgb|1 afdf e^def:|2 afdf efgf||

